src/main/webapp/scripts/pdfjs/v54530/web/images/secondaryToolbarButton-handTool.svg

<svg fill="none" height="16" viewBox="0 0 16 16" width="16" xmlns="http://www.w3.org/2000/svg"><path d="m7.75 2.125c0-.34479.28021-.625.625-.625s.625.28021.625.625v1 4.875h1.5v-4.875c0-.34479.2802-.625.625-.625s.625.28021.625.625v1.5 3.375h1.5v-3.375c0-.34479.2802-.625.625-.625s.625.28021.625.625v7.3938l-1.1198 1.644c-.0848.1244-.1302.2716-.1302.4222v1.915h1.5v-1.6838l1.1198-1.644c.0848-.1244.1302-.2716.1302-.4222v-7.625c0-1.17321-.9518-2.125-2.125-2.125-.2404 0-.4715.03996-.687.1136-.229-.92636-1.0661-1.6136-2.063-1.6136-.3015 0-.5884.06286-.8482.17618-.3487-.697212-1.06954-1.17618-1.9018-1.17618s-1.5531.478968-1.90177 1.17618c-.25986-.11332-.54673-.17618-.84823-.17618-1.17321 0-2.125.95179-2.125 2.125v4.12817c-.83496-.71035-2.08965-.67118-2.878328.1175-.829893.82989-.829893 2.17577 0 3.00563l.000208.0002 4.87712 4.8733v.7502h1.5v-1.061c0-.199-.0791-.3899-.21988-.5305l-5.09679-5.09283c-.2441-.24411-.2441-.64023 0-.88434.24411-.24411.64024-.24411.88434 0l1.153 1.153c.2145.2145.53709.27867.81734.16258.28026-.11609.46299-.38956.46299-.69291v-5.929c0-.34479.28022-.625.625-.625.34421 0 .62406.27927.625.62326v4.87674h1.5v-4.875-.00322z" fill="#000"/></svg>

<svg width="16" height="16" viewBox="0 0 16 16" fill="none" xmlns="http://www.w3.org/2000/svg">
<path d="M7.75 2.125C7.75 1.78021 8.03021 1.5 8.375 1.5C8.71979 1.5 9 1.78021 9 2.125V3.125V8H10.5V3.125C10.5 2.78021 10.7802 2.5 11.125 2.5C11.4698 2.5 11.75 2.78021 11.75 3.125V4.625V8H13.25V4.625C13.25 4.28021 13.5302 4 13.875 4C14.2198 4 14.5 4.28021 14.5 4.625V12.0188L13.3802 13.6628C13.2954 13.7872 13.25 13.9344 13.25 14.085V16H14.75V14.3162L15.8698 12.6722C15.9546 12.5478 16 12.4006 16 12.25V4.625C16 3.45179 15.0482 2.5 13.875 2.5C13.6346 2.5 13.4035 2.53996 13.188 2.6136C12.959 1.68724 12.1219 1 11.125 1C10.8235 1 10.5366 1.06286 10.2768 1.17618C9.9281 0.478968 9.20726 0 8.375 0C7.54274 0 6.8219 0.478968 6.47323 1.17618C6.21337 1.06286 5.9265 1 5.625 1C4.45179 1 3.5 1.95179 3.5 3.125V7.25317C2.66504 6.54282 1.41035 6.58199 0.621672 7.37067C-0.208221 8.20056 -0.208221 9.54644 0.621672 10.3763L0.62188 10.3765L5.499 15.2498V16H6.999V14.939C6.999 14.74 6.9199 14.5491 6.77912 14.4085L1.68233 9.31567C1.43823 9.07156 1.43823 8.67544 1.68233 8.43133C1.92644 8.18722 2.32257 8.18722 2.56667 8.43133L3.71967 9.58433C3.93417 9.79883 4.25676 9.863 4.53701 9.74691C4.81727 9.63082 5 9.35735 5 9.054V3.125C5 2.78021 5.28022 2.5 5.625 2.5C5.96921 2.5 6.24906 2.77927 6.25 3.12326V8H7.75L7.75 3.125L7.75 3.12178V2.125Z" fill="black"/>
</svg>
